assets/images/avatar/Avatar 23.svg

<svg fill="none" height="128" viewBox="0 0 128 128" width="128" xmlns="http://www.w3.org/2000/svg" xmlns:xlink="http://www.w3.org/1999/xlink"><mask id="a" height="106" maskUnits="userSpaceOnUse" width="118" x="5" y="11"><path clip-rule="evenodd" d="m61.2415 11.28c18.0017-.2095 34.9169 8.2531 46.2675 22.2079 11.484 14.1179 18.312 32.9844 12.703 50.2895-5.211 16.0793-22.5451 23.3326-38.4413 29.1306-13.4997 4.924-27.6916 5.304-40.9807-.161-14.5094-5.968-28.2573-15.2848-32.94025-30.2413-5.10319-16.2988-1.79126-34.2856 8.45655-47.9564 10.6381-14.1915 27.1851-23.0627 44.9352-23.2693z" fill="#eff6f7" fill-rule="evenodd"/></mask><g mask="url(#a)"><path clip-rule="evenodd" d="m61.2415 11.28c18.0017-.2095 34.9169 8.2531 46.2675 22.2079 11.484 14.1179 18.312 32.9844 12.703 50.2895-5.211 16.0793-22.5451 23.3326-38.4413 29.1306-13.4997 4.924-27.6916 5.304-40.9807-.161-14.5094-5.968-28.2573-15.2848-32.94025-30.2413-5.10319-16.2988-1.79126-34.2856 8.45655-47.9564 10.6381-14.1915 27.1851-23.0627 44.9352-23.2693z" fill="#eff6f7" fill-rule="evenodd"/><path d="m55.3417 61.0781c0 8.4602 4.9767 15.5429-2.557 22.5098-4.3642 4.032-19.8704 5.3912-25.7676 8.4145-8.0579 4.1295-11.2762 13.5986-12.3886 25.3836h103.2445c-1.311-9.067-3.142-16.223-6.144-20.4495-5.44-7.6557-21.9431-7.5033-26.8955-12.6903-3.2213-3.3799-3.904-13.8576-2.4625-26.4717 1.2465-10.9135-27.0293-11.3981-27.0293 3.3036z" fill="#e7baef"/><path d="m27.0171 92.0024c5.7692-2.9593 20.7238-4.3307 25.4446-8.1646 1.7097 3.904 9.8712 12.8884 22.2476 12.9493 9.2221.0457 10.6667-8.2681 11.075-11.715 5.8423 4.3672 20.8127 4.6324 25.9567 11.8644 3.002 4.2275 4.833 11.3825 6.144 20.4495h-103.2565c1.1124-11.785 4.3307-21.2541 12.3886-25.3836z" fill="#774985"/><path d="m54.2872 82.0001c2.3406-2.8557 2.8221-5.7509 2.624-8.768-.0518-.7497-.1402-1.5238-.256-2.2766-.0548-.3779-.1158-.7436-.1767-1.1063 0-.0762-.0275-.1493-.0397-.2225-.0426-.256-.0883-.5089-.134-.768-.3048-1.6579-.6279-3.3523-.8138-5.126 8.2713-.4968 18.2004-.6461 26.4412-1.3623-.3559 4.1252-.3752 8.2724-.0579 12.4007-5.6869 7.4027-18.7185 8.7497-27.5871 7.229z" fill="#db9fe6"/><path d="m64.9325 26.8047s-17.1094 15.6312-14.4122 24.963c0 0-3.6968 1.5238-2.304 3.0293 23.7227 25.7219 9.024 62.589 9.024 62.589h-27.6846c-2.2156-21.8088 14.1074-28.5897 7.1985-58.0175-5.2053-22.1623.3048-37.3212 13.4552-42.0572 7.7288-2.8038 14.7231 9.4934 14.7231 9.4934z" fill="#28213d"/><path d="m53.8057 31.2694s-12.7269-5.8118-5.6442-12.4678c3.8979-3.6571 12.4464-7.5764 21.3333-5.9124 10.4381 1.9535 17.1825 6.9791 21.7874 16.0641 7.2899 14.3908 1.4263 28.3428 2.5661 42.7093 1.664 20.9341 11.4047 21.1901 18.2857 45.7144h-25.1093c-18.7337-40.6188.3627-68.8764-.1767-69.5194-11.7882-13.7569-33.0423-16.5882-33.0423-16.5882z" fill="#28213d"/><g fill="#e7baef"><path d="m87.747 46.7331c-.0427 4.4647 3.6205 9.3958 1.0666 14.9912-3.3737 7.3783-10.7123 14.5707-15.7531 14.5707-6.5646 0-19.4133-6.0953-21.7813-15.2046-2.1121-8.1463-1.4172-5.117-2.0511-11.581-.5029-5.1169 3.8888-8.7162 7.0095-18.8495-.0091 0 31.6922-4.0411 31.5094 16.0732z"/><path d="m49.9474 51.7677c-.5791-.835-4.1357-5.0255-5.7905-2.4107-.9631 1.5239.5089 4.6355 2.4655 7.3661 1.8286 2.5357 4.989 4.3429 5.5802 4.3612.5912.0182-2.2552-9.3166-2.2552-9.3166z"/><path d="m86.9576 49.802c.3048-.9692 2.4199-6.0404 4.7879-4.0533 1.3805 1.1581.9142 4.5714-.1159 7.7684-.963 2.9683-3.4377 5.6533-3.9954 5.8514s-.6766-9.5665-.6766-9.5665z"/></g></g></svg>

<svg width="128" height="128" viewBox="0 0 128 128" fill="none" xmlns="http://www.w3.org/2000/svg">
<mask id="mask0_457_1634" style="mask-type:alpha" maskUnits="userSpaceOnUse" x="5" y="11" width="118" height="106">
<path fill-rule="evenodd" clip-rule="evenodd" d="M61.2415 11.28C79.2432 11.0705 96.1584 19.5331 107.509 33.4879C118.993 47.6058 125.821 66.4723 120.212 83.7774C115.001 99.8567 97.6669 107.11 81.7707 112.908C68.271 117.832 54.0791 118.212 40.79 112.747C26.2806 106.779 12.5327 97.4622 7.84975 82.5057C2.74656 66.2069 6.05849 48.2201 16.3063 34.5493C26.9444 20.3578 43.4914 11.4866 61.2415 11.28Z" fill="#EFF6F7"/>
</mask>
<g mask="url(#mask0_457_1634)">
<path fill-rule="evenodd" clip-rule="evenodd" d="M61.2415 11.28C79.2432 11.0705 96.1584 19.5331 107.509 33.4879C118.993 47.6058 125.821 66.4723 120.212 83.7774C115.001 99.8567 97.6669 107.11 81.7707 112.908C68.271 117.832 54.0791 118.212 40.79 112.747C26.2806 106.779 12.5327 97.4622 7.84975 82.5057C2.74656 66.2069 6.05849 48.2201 16.3063 34.5493C26.9444 20.3578 43.4914 11.4866 61.2415 11.28Z" fill="#EFF6F7"/>
<path d="M55.3417 61.0781C55.3417 69.5383 60.3184 76.621 52.7847 83.5879C48.4205 87.6199 32.9143 88.9791 27.0171 92.0024C18.9592 96.1319 15.7409 105.601 14.6285 117.386H117.873C116.562 108.319 114.731 101.163 111.729 96.9365C106.289 89.2808 89.7859 89.4332 84.8335 84.2462C81.6122 80.8663 80.9295 70.3886 82.371 57.7745C83.6175 46.861 55.3417 46.3764 55.3417 61.0781Z" fill="#E7BAEF"/>
<path d="M27.0171 92.0024C32.7863 89.0431 47.7409 87.6717 52.4617 83.8378C54.1714 87.7418 62.3329 96.7262 74.7093 96.7871C83.9314 96.8328 85.376 88.519 85.7843 85.0721C91.6266 89.4393 106.597 89.7045 111.741 96.9365C114.743 101.164 116.574 108.319 117.885 117.386H14.6285C15.7409 105.601 18.9592 96.1319 27.0171 92.0024Z" fill="#774985"/>
<path d="M54.2872 82.0001C56.6278 79.1444 57.1093 76.2492 56.9112 73.2321C56.8594 72.4824 56.771 71.7083 56.6552 70.9555C56.6004 70.5776 56.5394 70.2119 56.4785 69.8492C56.4785 69.773 56.451 69.6999 56.4388 69.6267C56.3962 69.3707 56.3505 69.1178 56.3048 68.8587C56 67.2008 55.6769 65.5064 55.491 63.7327C63.7623 63.2359 73.6914 63.0866 81.9322 62.3704C81.5763 66.4956 81.557 70.6428 81.8743 74.7711C76.1874 82.1738 63.1558 83.5208 54.2872 82.0001Z" fill="#DB9FE6"/>
<path d="M64.9325 26.8047C64.9325 26.8047 47.8231 42.4359 50.5203 51.7677C50.5203 51.7677 46.8235 53.2915 48.2163 54.797C71.939 80.5189 57.2403 117.386 57.2403 117.386H29.5557C27.3401 95.5772 43.6631 88.7963 36.7542 59.3685C31.5489 37.2062 37.059 22.0473 50.2094 17.3113C57.9382 14.5075 64.9325 26.8047 64.9325 26.8047Z" fill="#28213D"/>
<path d="M53.8057 31.2694C53.8057 31.2694 41.0788 25.4576 48.1615 18.8016C52.0594 15.1445 60.6079 11.2252 69.4948 12.8892C79.9329 14.8427 86.6773 19.8683 91.2822 28.9533C98.5721 43.3441 92.7085 57.2961 93.8483 71.6626C95.5123 92.5967 105.253 92.8527 112.134 117.377H87.0247C68.291 76.7582 87.3874 48.5006 86.848 47.8576C75.0598 34.1007 53.8057 31.2694 53.8057 31.2694Z" fill="#28213D"/>
<path d="M87.747 46.7331C87.7043 51.1978 91.3675 56.1289 88.8136 61.7243C85.4399 69.1026 78.1013 76.295 73.0605 76.295C66.4959 76.295 53.6472 70.1997 51.2792 61.0904C49.1671 52.9441 49.862 55.9734 49.2281 49.5094C48.7252 44.3925 53.1169 40.7932 56.2376 30.6599C56.2285 30.6599 87.9298 26.6188 87.747 46.7331Z" fill="#E7BAEF"/>
<path d="M49.9474 51.7677C49.3683 50.9327 45.8117 46.7422 44.1569 49.357C43.1938 50.8809 44.6658 53.9925 46.6224 56.7231C48.451 59.2588 51.6114 61.066 52.2026 61.0843C52.7938 61.1025 49.9474 51.7677 49.9474 51.7677Z" fill="#E7BAEF"/>
<path d="M86.9576 49.802C87.2624 48.8328 89.3775 43.7616 91.7455 45.7487C93.126 46.9068 92.6597 50.3201 91.6296 53.5171C90.6666 56.4854 88.1919 59.1704 87.6342 59.3685C87.0765 59.5666 86.9576 49.802 86.9576 49.802Z" fill="#E7BAEF"/>
</g>
</svg>
